resources/svg/major-barcode.svg

<svg xmlns="http://www.w3.org/2000/svg" viewBox="0 0 20 20" fill="currentColor"><path d="M3 3h1v-2h-1.5a1.5 1.5 0 0 0-1.5 1.5v1.5h2v-1zm14 0v1h2v-1.5a1.5 1.5 0 0 0-1.5-1.5h-1.5v2h1zm-1 14h1v-1h2v1.5a1.5 1.5 0 0 1-1.5 1.5h-1.5v-2zm-13 0v-1h-2v1.5a1.5 1.5 0 0 0 1.5 1.5h1.5v-2h-1zm-1-3h3v-8h-3v8zm12 0h-3v-8h3v8zm-7 0h2v-8h-2v8zm9 0h2v-8h-2v8z"/></svg>

<svg xmlns="http://www.w3.org/2000/svg" viewBox="0 0 20 20" fill="currentColor"><path d="M3 3h1V1H2.5A1.5 1.5 0 001 2.5V4h2V3zM17 3v1h2V2.5A1.5 1.5 0 0017.5 1H16v2h1zM16 17h1v-1h2v1.5a1.5 1.5 0 01-1.5 1.5H16v-2zM3 17v-1H1v1.5A1.5 1.5 0 002.5 19H4v-2H3zM2 14h3V6H2v8zM14 14h-3V6h3v8zM7 14h2V6H7v8zM16 14h2V6h-2v8z" fill="#5C5F62"/></svg>
